X:71
T:7. CIRCLE WALTZ (32 bar waltzes)
T:Will ye no' come back again
O:Scotland
M:3/4
L:1/4
K:G
P:A
G2 B|A2 G|E2 G|D3|d2 e|d2 B|BAG|A3|\
B2 B|A2 G|E>G E|D3|e e e|d2 B|cBA|G3|
P:B
B2 d|d2 e|B2 d|d3|g2 f|e2 d|e d B|A3|\
B2 B|A2 G|E2 G|D3|e e e|d2 B|cBA|G3|
